X: 16168
T: The Soldier's Dance
R: jig
B: RSCDS 16-__
Z: 1997 by John Chambers <jc:trillian.mit.edu>
M: 6/8
L: 1/8
K: A
E \
| "A"A2A "F#m"AGA | "Bm"B2B "E7"e2c | "A"A2A "F#m"AGA | "E7"GBG EFG \
| "A"A2A "F#m"AGA | "Bm"B2B "E7"e2d | "A"cBA "E7"BAG | "A"A3- A2 :|
|: c/d/ \
| "A"e2e cde | "D"f2f "Bm"f3 | "E7"g3g efg | "A"a2a a>gf \
| "A"e2e cde | "D"fga "Bm"agf | "A"edc "E7"BAG | "A"A3- A2 :|
%%center Book16/SoldiersDance-JC.abc

%%sep 1 1 500
%%sep 1 1 500

